svg/material-icons/sports_football/materialiconsoutlined/20px.svg

<svg xmlns="http://www.w3.org/2000/svg" width="20" height="20" viewBox="0 0 20 20"><path d="M15.54 4.46c-.22-.22-1.29-.46-2.7-.46-2.02 0-4.73.5-6.53 2.31-3.06 3.06-2.37 8.71-1.85 9.23.22.22 1.29.46 2.7.46 2.02 0 4.73-.5 6.53-2.31 3.06-3.06 2.38-8.7 1.85-9.23zm-2.7.54c.96 0 1.64.12 1.96.21.14.46.26 1.48.18 2.69L12.1 5.03c.28-.02.54-.03.74-.03zM5.2 14.79c-.14-.46-.26-1.48-.18-2.69l2.87 2.87c-.27.02-.53.03-.73.03-.96 0-1.64-.12-1.96-.21zm7.79-1.8c-1.1 1.1-2.58 1.6-3.83 1.83l-3.98-3.98c.25-1.36.79-2.78 1.83-3.82 1.1-1.1 2.58-1.6 3.83-1.83l3.98 3.98c-.25 1.35-.79 2.77-1.83 3.82z"/><path d="m7.525 11.768 4.243-4.243.707.707-4.243 4.243z"/></svg>

<svg xmlns="http://www.w3.org/2000/svg" enable-background="new 0 0 20 20" height="20" viewBox="0 0 20 20" width="20"><g><rect fill="none" height="20" width="20" x="0"/></g><g><g><path d="M15.54,4.46C15.32,4.24,14.25,4,12.84,4c-2.02,0-4.73,0.5-6.53,2.31c-3.06,3.06-2.37,8.71-1.85,9.23 C4.68,15.76,5.75,16,7.16,16c2.02,0,4.73-0.5,6.53-2.31C16.75,10.63,16.07,4.99,15.54,4.46z M12.84,5c0.96,0,1.64,0.12,1.96,0.21 c0.14,0.46,0.26,1.48,0.18,2.69L12.1,5.03C12.38,5.01,12.64,5,12.84,5z M5.2,14.79c-0.14-0.46-0.26-1.48-0.18-2.69l2.87,2.87 C7.62,14.99,7.36,15,7.16,15C6.2,15,5.52,14.88,5.2,14.79z M12.99,12.99c-1.1,1.1-2.58,1.6-3.83,1.83l-3.98-3.98 c0.25-1.36,0.79-2.78,1.83-3.82c1.1-1.1,2.58-1.6,3.83-1.83l3.98,3.98C14.57,10.52,14.03,11.94,12.99,12.99z"/><rect height="1" transform="matrix(0.7071 -0.7071 0.7071 0.7071 -4.1421 10)" width="6" x="7" y="9.5"/></g></g></svg>
